fs/table_resize_column_24_regular.svg

<svg viewBox="0 0 24 24" fill="none" xmlns="http://www.w3.org/2000/svg" height="1em" width="1em">
  <path d="M15.5799 11.25H8.42013L9.31055 10.2483C9.58574 9.93869 9.55785 9.46464 9.24826 9.18945C8.93868 8.91426 8.46462 8.94215 8.18944 9.25174L6.18944 11.5017C5.93684 11.7859 5.93684 12.2141 6.18944 12.4983L8.18944 14.7483C8.46462 15.0579 8.93868 15.0858 9.24827 14.8106C9.55785 14.5354 9.58574 14.0613 9.31055 13.7517L8.42012 12.75H15.5799L14.6895 13.7517C14.4143 14.0613 14.4421 14.5354 14.7517 14.8106C15.0613 15.0858 15.5354 15.0579 15.8106 14.7483L17.8106 12.4983C17.8141 12.4943 17.8177 12.4902 17.8211 12.4861C17.9264 12.3626 17.9922 12.2045 17.9994 12.0313C18.0002 12.0112 18.0002 11.991 17.9994 11.9709C17.9925 11.7899 17.9215 11.6254 17.8084 11.4993L15.8106 9.25174C15.5354 8.94215 15.0613 8.91426 14.7517 9.18945C14.4421 9.46464 14.4143 9.93869 14.6895 10.2483L15.5799 11.25ZM17.75 3C19.5449 3 21 4.45507 21 6.25V17.75C21 19.5449 19.5449 21 17.75 21H6.25C4.45508 21 3 19.5449 3 17.75V6.25C3 4.45507 4.45507 3 6.25 3H17.75ZM19.5 6.25C19.5 5.2835 18.7165 4.5 17.75 4.5H17.5V9.64713L16.558 8.58737C16.3968 8.406 16.2063 8.26607 16 8.16836V4.5H8V8.16836C7.7937 8.26606 7.60323 8.406 7.44202 8.58737L6.5 9.64713V4.5H6.25C5.2835 4.5 4.5 5.2835 4.5 6.25V17.75C4.5 18.7165 5.2835 19.5 6.25 19.5H6.5V14.3529L7.44202 15.4126C7.60323 15.594 7.7937 15.7339 8 15.8317V19.5H16V15.8316C16.2063 15.7339 16.3968 15.594 16.558 15.4126L17.5 14.3529V19.5H17.75C18.7165 19.5 19.5 18.7165 19.5 17.75V6.25Z" fill="#212121"/>
</svg>

<svg viewBox="0 0 24 24" fill="none" xmlns="http://www.w3.org/2000/svg" height="1em" width="1em">
  <path d="M15.58 11.25H8.42l.89-1.002a.75.75 0 0 0-1.12-.996l-2 2.25a.75.75 0 0 0 0 .996l2 2.25a.75.75 0 1 0 1.12-.996l-.89-1.002h7.16l-.89 1.002a.75.75 0 1 0 1.12.996l2-2.25.011-.012a.747.747 0 0 0-.013-.987l-1.997-2.247a.75.75 0 0 0-1.121.996l.89 1.002ZM17.75 3A3.25 3.25 0 0 1 21 6.25v11.5A3.25 3.25 0 0 1 17.75 21H6.25A3.25 3.25 0 0 1 3 17.75V6.25A3.25 3.25 0 0 1 6.25 3h11.5Zm1.75 3.25a1.75 1.75 0 0 0-1.75-1.75h-.25v5.147l-.942-1.06A1.744 1.744 0 0 0 16 8.168V4.5H8v3.668a1.744 1.744 0 0 0-.558.42L6.5 9.647V4.5h-.25A1.75 1.75 0 0 0 4.5 6.25v11.5c0 .966.784 1.75 1.75 1.75h.25v-5.147l.942 1.06c.161.181.352.32.558.419V19.5h8v-3.668c.206-.098.397-.238.558-.42l.942-1.06V19.5h.25a1.75 1.75 0 0 0 1.75-1.75V6.25Z" fill="#212121"/>
</svg>
